X:267
T:Three Scones of Boxty
R:reel
S:Seanchardie
Z:transcribed by Dave Marshall
M:C|
K:Amix
| G~E3 cBAc | BAGB A2EF | G~E3 cBAc | BAGE EDFA |
G~E3 cBAc | BAGB A2EF | G~E3 cBAc | BAGE D4 |
| cded c~A3 | BAGB A2AB | cded c~A3 | AcGE EDD2 | 
cded c~A3 | BAGB A2AB | cdef gbed | cAGE D4 |

